packages/dnb-ui-lib/assets/icons/email_medium.svg

<svg width="24" height="24" viewBox="0 0 24 24" fill="none" xmlns="http://www.w3.org/2000/svg">
<path d="M19.5 14.5001L15.047 10.3351M4.5 14.5001L8.95226 10.3358M1.42286 4.94626C1.16139 5.21714 1 5.58929 1 6V18C1 18.8284 1.65665 19.5 2.46667 19.5H21.5333C22.3434 19.5 23 18.8284 23 18V6C23 5.58726 22.837 5.21345 22.5733 4.94224M1.42286 4.94626C1.68878 4.67075 2.05823 4.5 2.46667 4.5H21.5333C21.9398 4.5 22.3076 4.66909 22.5733 4.94224M1.42286 4.94626L8.95226 10.3358M22.5733 4.94224L15.047 10.3351M15.047 10.3351L13.3193 11.5731C12.9314 11.8511 12.4713 12 12 12C11.5287 12 11.0686 11.8511 10.6807 11.5731L8.95226 10.3358" stroke="black" stroke-width="1.5" stroke-linecap="round" stroke-linejoin="round"/>
</svg>

<svg width="24" height="24" viewBox="0 0 24 24" fill="none" xmlns="http://www.w3.org/2000/svg"><path d="M19.5 14.5l-4.453-4.165M4.5 14.5l4.452-4.164m-7.53-5.39C1.163 5.217 1 5.59 1 6v12c0 .828.657 1.5 1.467 1.5h19.066c.81 0 1.467-.672 1.467-1.5V6c0-.413-.163-.787-.427-1.058m-21.15.004A1.446 1.446 0 012.467 4.5h19.066c.407 0 .775.17 1.04.442m-21.15.004l7.53 5.39m13.62-5.394l-7.526 5.393m0 0l-1.728 1.238A2.263 2.263 0 0112 12c-.471 0-.931-.149-1.32-.427l-1.728-1.237" stroke="#000" stroke-width="1.5" stroke-linecap="round" stroke-linejoin="round"/></svg>
